src/assets/squarelink.svg

<svg viewBox="0 0 23 23.05" xmlns="http://www.w3.org/2000/svg"><path d="m0 0h18a5 5 0 0 1 5 5v13.05a5 5 0 0 1 -5 5h-13a5 5 0 0 1 -5-5zm3.24 2.9v15.23a2 2 0 0 0 2 2h12.54a2 2 0 0 0 2-2v-13.23a2 2 0 0 0 -2-2zm3.5 0h3.26v11.63a2 2 0 0 1 -2 2h-4.76v-2.81h3.5zm9.5 17.23h-3.18v-11.63a2 2 0 0 1 2-2h4.72v2.81h-3.5z" fill="#3964df"/></svg>

<svg xmlns="http://www.w3.org/2000/svg" viewBox="0 0 23 23.05"><defs><style>.cls-1{fill:#3964df;}</style></defs><title>Asset 1</title><g id="Layer_2" data-name="Layer 2"><g id="Layer_1-2" data-name="Layer 1"><g id="Layer_2-2" data-name="Layer 2"><g id="Layer_1-2-2" data-name="Layer 1-2"><g id="Identity"><g id="Artboard"><path id="Icon-Blue" class="cls-1" d="M0,0H18a5,5,0,0,1,5,5V18.05a5,5,0,0,1-5,5H5a5,5,0,0,1-5-5ZM3.24,2.9V18.13a2,2,0,0,0,2,2H17.78a2,2,0,0,0,2-2V4.9a2,2,0,0,0-2-2Zm3.5,0H10V14.53a2,2,0,0,1-2,2H3.24V13.72h3.5Zm9.5,17.23H13.06V8.5a2,2,0,0,1,2-2h4.72V9.31h-3.5Z"/></g></g></g></g></g></g></svg>
